%
(Header)
(Generated by gcodetools from Inkscape.)
(Using default header. To add your own header create file "header" in the output dir.)
M3
(Header end.)
G21 (All units in mm)
(Tool diameter should be at least 0.774115797076 mm)
(Depth, as a function of radius w, must be 5*w)
(Rapid feeds use safe Z=2.0 mm)
(Material surface at Z=0.0 mm)
(Change tool to Eigth Inch Cone)

G00 Z2.000000
G00 X39.644179 Y9.096615

G01 Z-1.935339 F50.0(Penetrate)
G01 X5.777512 Y9.096615 Z-1.935339 F100.000000
G01 X1.328081 Y9.096079 Z-1.932658
G01 X1.328081 Y7.732522 Z-1.932658
G01 X1.328081 Y4.910300 Z-1.932658
G01 X1.328081 Y0.724493 Z-1.932658
G01 X2.955290 Y0.724239 Z-1.933928
G01 X36.821957 Y0.724239 Z-1.933928
G01 X41.271641 Y0.724239 Z-1.933928
G01 X41.271641 Y0.724239 Z-1.933928
G01 X41.271641 Y2.088078 Z-1.934069
G01 X41.271641 Y4.910300 Z-1.934069
G01 X41.271641 Y9.096361 Z-1.934069
G01 X39.644179 Y9.096615 Z-1.935339
G00 Z2.000000

G00 Z2.000000
G00 X39.644179 Y17.469217

G01 Z-1.935339 F50.0(Penetrate)
G01 X5.777512 Y17.469217 Z-1.935339 F100.000000
G01 X1.328081 Y17.468709 Z-1.932658
G01 X1.328081 Y16.105124 Z-1.932658
G01 X1.328081 Y13.282902 Z-1.932658
G01 X1.328081 Y9.097123 Z-1.932658
G01 X2.955290 Y9.096615 Z-1.935339
G01 X36.821957 Y9.096615 Z-1.935339
G01 X41.271641 Y9.096869 Z-1.934069
G01 X41.271641 Y10.460680 Z-1.934069
G01 X41.271641 Y13.282902 Z-1.934069
G01 X41.271641 Y17.468963 Z-1.934069
G01 X39.644179 Y17.469217 Z-1.935339
G00 Z2.000000

G00 Z2.000000
G00 X41.271641 Y25.842101

G01 Z-1.933928 F50.0(Penetrate)
G01 X5.777512 Y25.842101 Z-1.933928 F100.000000
G01 X1.328081 Y25.841819 Z-1.932658
G01 X1.328081 Y24.478008 Z-1.932658
G01 X1.328081 Y21.655786 Z-1.932658
G01 X1.328081 Y17.469725 Z-1.932658
G01 X2.955290 Y17.469217 Z-1.935339
G01 X36.821957 Y17.469217 Z-1.935339
G01 X41.271641 Y17.469471 Z-1.934069
G01 X41.271641 Y18.833564 Z-1.934069
G01 X41.271641 Y21.655786 Z-1.934069
G01 X41.271641 Y25.842101 Z-1.933928
G01 X41.271641 Y25.842101 Z-1.933928
G00 Z2.000000

G00 Z2.000000
G00 X39.644179 Y34.214449

G01 Z-1.935339 F50.0(Penetrate)
G01 X5.777512 Y34.214449 Z-1.935339 F100.000000
G01 X1.328081 Y34.213941 Z-1.932658
G01 X1.328081 Y32.850356 Z-1.932658
G01 X1.328081 Y30.028134 Z-1.932658
G01 X1.328081 Y25.842355 Z-1.932658
G01 X2.955290 Y25.842101 Z-1.933928
G01 X36.821957 Y25.842101 Z-1.933928
G01 X41.271641 Y25.842101 Z-1.933928
G01 X41.271641 Y27.205912 Z-1.934069
G01 X41.271641 Y30.028134 Z-1.934069
G01 X41.271641 Y34.214195 Z-1.934069
G01 X39.644179 Y34.214449 Z-1.935339
G00 Z2.000000

G00 Z2.000000
G00 X41.271641 Y42.586797

G01 Z-1.933928 F50.0(Penetrate)
G01 X5.777512 Y42.586797 Z-1.933928 F100.000000
G01 X1.328081 Y42.586543 Z-1.932658
G01 X1.328081 Y41.222986 Z-1.932658
G01 X1.328081 Y38.400764 Z-1.932658
G01 X1.328081 Y34.214957 Z-1.932658
G01 X2.955290 Y34.214449 Z-1.935339
G01 X36.821957 Y34.214449 Z-1.935339
G01 X41.271641 Y34.214703 Z-1.934069
G01 X41.271641 Y35.578542 Z-1.934069
G01 X41.271641 Y38.400764 Z-1.934069
G01 X41.271641 Y42.586797 Z-1.933928
G01 X41.271641 Y42.586797 Z-1.933928
G00 Z2.000000

G00 Z2.000000
G00 X39.644179 Y50.959173

G01 Z-1.935339 F50.0(Penetrate)
G01 X5.777512 Y50.959173 Z-1.935339 F100.000000
G01 X1.328081 Y50.958637 Z-1.932658
G01 X1.328081 Y49.595080 Z-1.932658
G01 X1.328081 Y46.772858 Z-1.932658
G01 X1.328081 Y42.587051 Z-1.932658
G01 X2.955290 Y42.586797 Z-1.933928
G01 X36.821957 Y42.586797 Z-1.933928
G01 X41.271641 Y42.586797 Z-1.933928
G01 X41.271641 Y43.950636 Z-1.934069
G01 X41.271641 Y46.772858 Z-1.934069
G01 X41.271641 Y50.958891 Z-1.934069
G01 X39.644179 Y50.959173 Z-1.935339
G00 Z2.000000

G00 Z2.000000
G00 X39.644179 Y59.331775

G01 Z-1.935339 F50.0(Penetrate)
G01 X5.777512 Y59.331775 Z-1.935339 F100.000000
G01 X1.328081 Y59.331267 Z-1.932658
G01 X1.328081 Y57.967682 Z-1.932658
G01 X1.328081 Y55.145460 Z-1.932658
G01 X1.328081 Y50.959681 Z-1.932658
G01 X2.955290 Y50.959173 Z-1.935339
G01 X36.821957 Y50.959173 Z-1.935339
G01 X41.271641 Y50.959427 Z-1.934069
G01 X41.271641 Y52.323238 Z-1.934069
G01 X41.271641 Y55.145460 Z-1.934069
G01 X41.271641 Y59.331521 Z-1.934069
G01 X39.644179 Y59.331775 Z-1.935339
G00 Z2.000000

G00 Z2.000000
G00 X41.271641 Y67.704659

G01 Z-1.933928 F50.0(Penetrate)
G01 X5.777512 Y67.704659 Z-1.933928 F100.000000
G01 X1.328081 Y67.704405 Z-1.932658
G01 X1.328081 Y66.340566 Z-1.932658
G01 X1.328081 Y63.518344 Z-1.932658
G01 X1.328081 Y59.332283 Z-1.932658
G01 X2.955290 Y59.331775 Z-1.935339
G01 X36.821957 Y59.331775 Z-1.935339
G01 X41.271641 Y59.332029 Z-1.934069
G01 X41.271641 Y60.696122 Z-1.934069
G01 X41.271641 Y63.518344 Z-1.934069
G01 X41.271641 Y67.704659 Z-1.933928
G01 X41.271641 Y67.704659 Z-1.933928
G00 Z2.000000

G00 Z2.000000
G00 X39.644179 Y76.077007

G01 Z-1.935339 F50.0(Penetrate)
G01 X5.777512 Y76.077007 Z-1.935339 F100.000000
G01 X1.328081 Y76.076499 Z-1.932658
G01 X1.328081 Y74.712914 Z-1.932658
G01 X1.328081 Y71.890692 Z-1.932658
G01 X1.328081 Y67.704913 Z-1.932658
G01 X2.955290 Y67.704659 Z-1.933928
G01 X36.821957 Y67.704659 Z-1.933928
G01 X41.271641 Y67.704659 Z-1.933928
G01 X41.271641 Y67.704659 Z-1.933928
G01 X41.271641 Y69.068470 Z-1.934069
G01 X41.271641 Y71.890692 Z-1.934069
G01 X41.271641 Y76.076753 Z-1.934069
G01 X39.644179 Y76.077007 Z-1.935339
G00 Z2.000000

G00 Z2.000000
G00 X39.644179 Y84.449637

G01 Z-1.935339 F50.0(Penetrate)
G01 X5.777512 Y84.449637 Z-1.935339 F100.000000
G01 X1.328081 Y84.449101 Z-1.932658
G01 X1.328081 Y83.085545 Z-1.932658
G01 X1.328081 Y80.263322 Z-1.932658
G01 X1.328081 Y76.077515 Z-1.932658
G01 X2.955290 Y76.077007 Z-1.935339
G01 X36.821957 Y76.077007 Z-1.935339
G01 X41.271641 Y76.077261 Z-1.934069
G01 X41.271641 Y77.441100 Z-1.934069
G01 X41.271641 Y80.263322 Z-1.934069
G01 X41.271641 Y84.449383 Z-1.934069
G01 X39.644179 Y84.449637 Z-1.935339
G00 Z2.000000

G00 Z2.000000
G00 X41.271641 Y92.821985

G01 Z-1.933928 F50.0(Penetrate)
G01 X5.777512 Y92.821985 Z-1.933928 F100.000000
G01 X1.328081 Y92.821731 Z-1.932658
G01 X1.328081 Y91.458147 Z-1.932658
G01 X1.328081 Y88.635924 Z-1.932658
G01 X1.328081 Y84.450145 Z-1.932658
G01 X2.955290 Y84.449637 Z-1.935339
G01 X36.821957 Y84.449637 Z-1.935339
G01 X41.271641 Y84.449891 Z-1.934069
G01 X41.271641 Y84.449891 Z-1.934069
G01 X41.271641 Y88.635924 Z-1.934069
G01 X41.271641 Y92.821985 Z-1.933928
G01 X41.271641 Y92.821985 Z-1.933928
G00 Z2.000000

G00 Z2.000000
G00 X1.328646 Y92.821985

G01 Z-1.933928 F50.0(Penetrate)
G01 X1.328646 Y92.821985 Z-1.933928 F100.000000
G01 X1.544687 Y92.821985 Z-1.933928
G01 X38.233576 Y92.821985 Z-1.933928
G01 X41.272121 Y92.822465 Z-1.931670
G01 X41.271585 Y92.913059 Z-1.478562
G01 X41.362743 Y92.912974 Z-1.478562
G01 X41.362743 Y92.912974 Z-1.478562
G01 X41.271641 Y92.821760 Z-1.933928
G01 X41.271641 Y92.821760 Z-1.933928
G01 X41.271641 Y91.457893 Z-1.933928
G01 X41.271641 Y88.635670 Z-1.934069
G01 X41.271387 Y84.449637 Z-1.935339
G01 X41.271641 Y83.085545 Z-1.934069
G01 X41.271641 Y80.263322 Z-1.934069
G01 X41.271387 Y76.077007 Z-1.935339
G01 X41.271641 Y74.713168 Z-1.934069
G01 X41.271641 Y71.890946 Z-1.934069
G01 X41.271641 Y67.704913 Z-1.934069
G01 X41.271641 Y66.340566 Z-1.934069
G01 X41.271641 Y63.518344 Z-1.934069
G01 X41.271387 Y59.331775 Z-1.935339
G01 X41.271641 Y57.967682 Z-1.934069
G01 X41.271641 Y55.145460 Z-1.934069
G01 X41.271387 Y50.959173 Z-1.935339
G01 X41.271641 Y49.595334 Z-1.934069
G01 X41.271641 Y46.773112 Z-1.934069
G01 X41.271641 Y42.587051 Z-1.934069
G01 X41.271641 Y41.222986 Z-1.934069
G01 X41.271641 Y38.400764 Z-1.934069
G01 X41.271387 Y34.214449 Z-1.935339
G01 X41.271641 Y32.850356 Z-1.934069
G01 X41.271641 Y30.028134 Z-1.934069
G01 X41.271641 Y25.841819 Z-1.934069
G01 X41.271641 Y24.477754 Z-1.934069
G01 X41.271641 Y21.655532 Z-1.934069
G01 X41.271387 Y17.469217 Z-1.935339
G01 X41.271641 Y16.105124 Z-1.934069
G01 X41.271641 Y13.282902 Z-1.934069
G01 X41.271387 Y9.096615 Z-1.935339
G01 X41.271641 Y7.732776 Z-1.934069
G01 X41.271641 Y4.910554 Z-1.934069
G01 X41.271641 Y0.724464 Z-1.933928
G01 X41.362715 Y0.724436 Z-1.478562
G01 X41.362743 Y0.633278 Z-1.478562
G01 X41.362743 Y0.633278 Z-1.478562
G01 X41.272121 Y0.723787 Z-1.931670
G01 X41.055798 Y0.724239 Z-1.933928
G01 X4.366909 Y0.724239 Z-1.933928
G01 X1.328646 Y0.724239 Z-1.933928
G01 X1.279172 Y0.605254 Z-1.339003
G01 X1.279172 Y0.605254 Z-1.339003
G01 X1.328364 Y0.724267 Z-1.933787
G01 X1.209350 Y0.675076 Z-1.339003
G01 X1.209350 Y0.675076 Z-1.339003
G01 X1.328110 Y0.724464 Z-1.932799
G01 X1.328110 Y0.724464 Z-1.932799
G01 X1.328081 Y0.724464 Z-1.932658
G01 X1.328081 Y4.910554 Z-1.932658
G01 X1.328589 Y9.096615 Z-1.935339
G01 X1.328081 Y10.460680 Z-1.932658
G01 X1.328081 Y13.282902 Z-1.932658
G01 X1.328589 Y17.469217 Z-1.935339
G01 X1.328081 Y18.833310 Z-1.932658
G01 X1.328081 Y21.655532 Z-1.932658
G01 X1.328081 Y25.841819 Z-1.932658
G01 X1.328081 Y27.205912 Z-1.932658
G01 X1.328081 Y30.028134 Z-1.932658
G01 X1.328589 Y34.214449 Z-1.935339
G01 X1.328081 Y35.578542 Z-1.932658
G01 X1.328081 Y38.400764 Z-1.932658
G01 X1.328081 Y42.587051 Z-1.932658
G01 X1.328081 Y43.950890 Z-1.932658
G01 X1.328081 Y46.773112 Z-1.932658
G01 X1.328589 Y50.959173 Z-1.935339
G01 X1.328081 Y52.323238 Z-1.932658
G01 X1.328081 Y55.145460 Z-1.932658
G01 X1.328589 Y59.331775 Z-1.935339
G01 X1.328081 Y60.696122 Z-1.932658
G01 X1.328081 Y63.518344 Z-1.932658
G01 X1.328081 Y67.704913 Z-1.932658
G01 X1.328081 Y69.068724 Z-1.932658
G01 X1.328081 Y71.890946 Z-1.932658
G01 X1.328589 Y76.077007 Z-1.935339
G01 X1.328081 Y77.441100 Z-1.932658
G01 X1.328081 Y80.263322 Z-1.932658
G01 X1.328589 Y84.449637 Z-1.935339
G01 X1.328081 Y85.813448 Z-1.932658
G01 X1.328081 Y88.635670 Z-1.932658
G01 X1.328138 Y92.821760 Z-1.932940
G01 X1.328138 Y92.821760 Z-1.932940
G01 X1.209350 Y92.821788 Z-1.339003
G01 X1.209350 Y92.871149 Z-1.339003
G01 X1.209350 Y92.871149 Z-1.339003
G01 X1.328364 Y92.821957 Z-1.933787
G01 X1.279172 Y92.940999 Z-1.339003
G01 X1.279172 Y92.940999 Z-1.339003
G01 X1.328646 Y92.821985 Z-1.933928
G00 Z2.000000


(Footer)
M5
G00 X0.0000 Y0.0000
M2
(Using default footer. To add your own footer create file "footer" in the output dir.)
(end)
%