%
(Header)
(Generated by gcodetools from Inkscape.)
(Using default header. To add your own header create file "header" in the output dir.)
M3
(Header end.)
G21 (All units in mm)
(Tool diameter should be at least 1.2448802395 mm)
(Depth, as a function of radius w, must be 5*w)
(Rapid feeds use safe Z=2.0 mm)
(Material surface at Z=0.0 mm)
(Change tool to Eigth Inch Cone)

G00 Z2.000000
G00 X9.132514 Y-91.126507

G01 Z-3.112206 F50.0(Penetrate)
G01 X9.132514 Y-91.126507 Z-3.112206 F100.000000
G01 X9.132344 Y-91.273347 Z-2.378004
G01 X8.985702 Y-91.273347 Z-2.378004
G01 X8.985702 Y-91.273347 Z-2.378004
G01 X9.132514 Y-91.126507 Z-3.112206
G01 X9.132514 Y-91.126507 Z-3.112206
G01 X8.985758 Y-91.126451 Z-2.378287
G01 X8.985645 Y-90.979752 Z-2.378287
G01 X8.985645 Y-90.979752 Z-2.378287
G01 X9.132514 Y-91.126507 Z-3.112206
G01 X9.132514 Y-91.126507 Z-3.112206
G01 X9.132570 Y-90.979780 Z-2.378569
G01 X9.279354 Y-90.979667 Z-2.378569
G01 X9.279354 Y-90.979667 Z-2.378569
G01 X9.132514 Y-91.126507 Z-3.112206
G01 X9.132514 Y-91.126507 Z-3.112206
G01 X9.279297 Y-91.126677 Z-2.378287
G01 X9.279269 Y-91.273404 Z-2.378287
G01 X9.279269 Y-91.273404 Z-2.378287
G01 X9.132514 Y-91.126507 Z-3.112206
G00 Z2.000000

G00 Z2.000000
G00 X9.132514 Y-88.591023

G01 Z-3.110936 F50.0(Penetrate)
G01 X9.132514 Y-88.591023 Z-3.110936 F100.000000
G01 X9.132344 Y-88.737581 Z-2.378004
G01 X8.985702 Y-88.737581 Z-2.378004
G01 X8.985702 Y-88.737581 Z-2.378004
G01 X9.132231 Y-88.590995 Z-3.110794
G01 X8.985702 Y-88.444437 Z-2.378004
G01 X8.985702 Y-88.444437 Z-2.378004
G01 X9.132514 Y-88.591023 Z-3.110936
G01 X9.132514 Y-88.591023 Z-3.110936
G01 X9.132570 Y-88.444493 Z-2.378287
G01 X9.279269 Y-88.444380 Z-2.378287
G01 X9.279269 Y-88.444380 Z-2.378287
G01 X9.132796 Y-88.590995 Z-3.110794
G01 X9.279269 Y-88.737637 Z-2.378287
G01 X9.279269 Y-88.737637 Z-2.378287
G01 X9.132514 Y-88.591023 Z-3.110936
G00 Z2.000000

G00 Z2.000000
G00 X9.132514 Y-86.055510

G01 Z-3.112206 F50.0(Penetrate)
G01 X9.132514 Y-86.055510 Z-3.112206 F100.000000
G01 X9.132344 Y-86.202294 Z-2.378287
G01 X8.985645 Y-86.202266 Z-2.378287
G01 X8.985645 Y-86.202266 Z-2.378287
G01 X9.132514 Y-86.055510 Z-3.112206
G01 X9.132514 Y-86.055510 Z-3.112206
G01 X8.985673 Y-86.055341 Z-2.378004
G01 X8.985702 Y-85.908670 Z-2.378004
G01 X8.985702 Y-85.908670 Z-2.378004
G01 X9.132514 Y-86.055510 Z-3.112206
G01 X9.132514 Y-86.055510 Z-3.112206
G01 X9.132570 Y-85.908726 Z-2.378287
G01 X9.279269 Y-85.908613 Z-2.378287
G01 X9.279269 Y-85.908613 Z-2.378287
G01 X9.132514 Y-86.055510 Z-3.112206
G01 X9.132514 Y-86.055510 Z-3.112206
G01 X9.279241 Y-86.055567 Z-2.378569
G01 X9.279354 Y-86.202322 Z-2.378569
G01 X9.279354 Y-86.202322 Z-2.378569
G01 X9.132514 Y-86.055510 Z-3.112206
G00 Z2.000000

G00 Z2.000000
G00 X9.132514 Y-82.754159

G01 Z-3.110936 F50.0(Penetrate)
G01 X9.132514 Y-82.754159 Z-3.110936 F100.000000
G01 X9.132344 Y-82.900745 Z-2.378004
G01 X8.985702 Y-82.900745 Z-2.378004
G01 X8.985702 Y-82.900745 Z-2.378004
G01 X9.132260 Y-82.754159 Z-3.110936
G01 X8.985702 Y-82.607573 Z-2.378004
G01 X8.985702 Y-82.607573 Z-2.378004
G01 X9.132514 Y-82.754159 Z-3.110936
G01 X9.132514 Y-82.754159 Z-3.110936
G01 X9.132570 Y-82.607629 Z-2.378287
G01 X9.279269 Y-82.607517 Z-2.378287
G01 X9.279269 Y-82.607517 Z-2.378287
G01 X9.132768 Y-82.754159 Z-3.110936
G01 X9.279269 Y-82.900802 Z-2.378287
G01 X9.279269 Y-82.900802 Z-2.378287
G01 X9.132514 Y-82.754159 Z-3.110936
G00 Z2.000000

G00 Z2.000000
G00 X9.132514 Y-80.218393

G01 Z-3.110936 F50.0(Penetrate)
G01 X9.132514 Y-80.218393 Z-3.110936 F100.000000
G01 X9.132344 Y-80.364979 Z-2.378004
G01 X8.985702 Y-80.364979 Z-2.378004
G01 X8.985702 Y-80.364979 Z-2.378004
G01 X9.132260 Y-80.218393 Z-3.110936
G01 X8.985702 Y-80.071806 Z-2.378004
G01 X8.985702 Y-80.071806 Z-2.378004
G01 X9.132514 Y-80.218393 Z-3.110936
G01 X9.132514 Y-80.218393 Z-3.110936
G01 X9.132570 Y-80.071863 Z-2.378287
G01 X9.279269 Y-80.071750 Z-2.378287
G01 X9.279269 Y-80.071750 Z-2.378287
G01 X9.132768 Y-80.218393 Z-3.110936
G01 X9.279269 Y-80.365035 Z-2.378287
G01 X9.279269 Y-80.365035 Z-2.378287
G01 X9.132514 Y-80.218393 Z-3.110936
G00 Z2.000000

G00 Z2.000000
G00 X9.132514 Y-77.682880

G01 Z-3.112206 F50.0(Penetrate)
G01 X9.132514 Y-77.682880 Z-3.112206 F100.000000
G01 X9.132344 Y-77.829720 Z-2.378004
G01 X8.985702 Y-77.829720 Z-2.378004
G01 X8.985702 Y-77.829720 Z-2.378004
G01 X9.132514 Y-77.682880 Z-3.112206
G01 X9.132514 Y-77.682880 Z-3.112206
G01 X8.985758 Y-77.682823 Z-2.378428
G01 X8.985645 Y-77.536153 Z-2.378428
G01 X8.985645 Y-77.536153 Z-2.378428
G01 X9.132542 Y-77.682852 Z-3.112064
G01 X9.132542 Y-77.682852 Z-3.112064
G01 X9.132570 Y-77.536153 Z-2.378569
G01 X9.279354 Y-77.536068 Z-2.378569
G01 X9.279354 Y-77.536068 Z-2.378569
G01 X9.132514 Y-77.682880 Z-3.112206
G01 X9.132514 Y-77.682880 Z-3.112206
G01 X9.279297 Y-77.683049 Z-2.378287
G01 X9.279269 Y-77.829777 Z-2.378287
G01 X9.279269 Y-77.829777 Z-2.378287
G01 X9.132514 Y-77.682880 Z-3.112206
G00 Z2.000000

G00 Z2.000000
G00 X9.132514 Y-74.381529

G01 Z-3.110936 F50.0(Penetrate)
G01 X9.132514 Y-74.381529 Z-3.110936 F100.000000
G01 X9.132344 Y-74.528115 Z-2.378004
G01 X8.985702 Y-74.528115 Z-2.378004
G01 X8.985702 Y-74.528115 Z-2.378004
G01 X9.132260 Y-74.381529 Z-3.110936
G01 X8.985730 Y-74.234999 Z-2.378146
G01 X8.985730 Y-74.234999 Z-2.378146
G01 X9.132514 Y-74.381529 Z-3.110936
G01 X9.132514 Y-74.381529 Z-3.110936
G01 X9.132542 Y-74.235027 Z-2.378428
G01 X9.279241 Y-74.234943 Z-2.378428
G01 X9.279241 Y-74.234943 Z-2.378428
G01 X9.132768 Y-74.381529 Z-3.110936
G01 X9.279269 Y-74.528172 Z-2.378287
G01 X9.279269 Y-74.528172 Z-2.378287
G01 X9.132514 Y-74.381529 Z-3.110936
G00 Z2.000000

G00 Z2.000000
G00 X9.132514 Y-71.846045

G01 Z-3.112206 F50.0(Penetrate)
G01 X9.132514 Y-71.846045 Z-3.112206 F100.000000
G01 X9.132344 Y-71.992828 Z-2.378287
G01 X8.985645 Y-71.992800 Z-2.378287
G01 X8.985645 Y-71.992800 Z-2.378287
G01 X9.132514 Y-71.846045 Z-3.112206
G01 X9.132514 Y-71.846045 Z-3.112206
G01 X8.985673 Y-71.845875 Z-2.378004
G01 X8.985702 Y-71.699204 Z-2.378004
G01 X8.985702 Y-71.699204 Z-2.378004
G01 X9.132514 Y-71.846045 Z-3.112206
G01 X9.132514 Y-71.846045 Z-3.112206
G01 X9.132570 Y-71.699261 Z-2.378287
G01 X9.279269 Y-71.699148 Z-2.378287
G01 X9.279269 Y-71.699148 Z-2.378287
G01 X9.132514 Y-71.846045 Z-3.112206
G01 X9.132514 Y-71.846045 Z-3.112206
G01 X9.279241 Y-71.846101 Z-2.378569
G01 X9.279354 Y-71.992885 Z-2.378569
G01 X9.279354 Y-71.992885 Z-2.378569
G01 X9.132514 Y-71.846045 Z-3.112206
G00 Z2.000000

G00 Z2.000000
G00 X9.132514 Y-69.310278

G01 Z-3.112206 F50.0(Penetrate)
G01 X9.132514 Y-69.310278 Z-3.112206 F100.000000
G01 X9.132344 Y-69.457118 Z-2.378004
G01 X8.985702 Y-69.457118 Z-2.378004
G01 X8.985702 Y-69.457118 Z-2.378004
G01 X9.132514 Y-69.310278 Z-3.112206
G01 X9.132514 Y-69.310278 Z-3.112206
G01 X8.985730 Y-69.310222 Z-2.378287
G01 X8.985617 Y-69.163494 Z-2.378287
G01 X8.985617 Y-69.163494 Z-2.378287
G01 X9.132514 Y-69.310278 Z-3.112206
G01 X9.132514 Y-69.310278 Z-3.112206
G01 X9.132570 Y-69.163551 Z-2.378569
G01 X9.279354 Y-69.163438 Z-2.378569
G01 X9.279354 Y-69.163438 Z-2.378569
G01 X9.132514 Y-69.310278 Z-3.112206
G01 X9.132514 Y-69.310278 Z-3.112206
G01 X9.279297 Y-69.310447 Z-2.378287
G01 X9.279269 Y-69.457175 Z-2.378287
G01 X9.279269 Y-69.457175 Z-2.378287
G01 X9.132514 Y-69.310278 Z-3.112206
G00 Z2.000000

G00 Z2.000000
G00 X9.132514 Y-66.008927

G01 Z-3.110936 F50.0(Penetrate)
G01 X9.132514 Y-66.008927 Z-3.110936 F100.000000
G01 X9.132344 Y-66.155513 Z-2.378004
G01 X8.985702 Y-66.155513 Z-2.378004
G01 X8.985702 Y-66.155513 Z-2.378004
G01 X9.132260 Y-66.008927 Z-3.110936
G01 X8.985702 Y-65.862341 Z-2.378004
G01 X8.985702 Y-65.862341 Z-2.378004
G01 X9.132514 Y-66.008927 Z-3.110936
G01 X9.132514 Y-66.008927 Z-3.110936
G01 X9.132570 Y-65.862397 Z-2.378287
G01 X9.279269 Y-65.862284 Z-2.378287
G01 X9.279269 Y-65.862284 Z-2.378287
G01 X9.132768 Y-66.008927 Z-3.110936
G01 X9.279269 Y-66.155570 Z-2.378287
G01 X9.279269 Y-66.155570 Z-2.378287
G01 X9.132514 Y-66.008927 Z-3.110936
G00 Z2.000000

G00 Z2.000000
G00 X9.132514 Y-63.473414

G01 Z-3.112206 F50.0(Penetrate)
G01 X9.132514 Y-63.473414 Z-3.112206 F100.000000
G01 X9.132344 Y-63.620198 Z-2.378287
G01 X8.985617 Y-63.620198 Z-2.378287
G01 X8.985617 Y-63.620198 Z-2.378287
G01 X9.132514 Y-63.473414 Z-3.112206
G01 X9.132514 Y-63.473414 Z-3.112206
G01 X8.985673 Y-63.473245 Z-2.378004
G01 X8.985702 Y-63.326574 Z-2.378004
G01 X8.985702 Y-63.326574 Z-2.378004
G01 X9.132514 Y-63.473414 Z-3.112206
G01 X9.132514 Y-63.473414 Z-3.112206
G01 X9.132570 Y-63.326631 Z-2.378287
G01 X9.279269 Y-63.326518 Z-2.378287
G01 X9.279269 Y-63.326518 Z-2.378287
G01 X9.132514 Y-63.473414 Z-3.112206
G01 X9.132514 Y-63.473414 Z-3.112206
G01 X9.279241 Y-63.473471 Z-2.378569
G01 X9.279354 Y-63.620255 Z-2.378569
G01 X9.279354 Y-63.620255 Z-2.378569
G01 X9.132514 Y-63.473414 Z-3.112206
G00 Z2.000000

G00 Z2.000000
G00 X9.132514 Y-60.937930

G01 Z-3.110936 F50.0(Penetrate)
G01 X9.132514 Y-60.937930 Z-3.110936 F100.000000
G01 X9.132344 Y-61.084488 Z-2.378004
G01 X8.985702 Y-61.084488 Z-2.378004
G01 X8.985702 Y-61.084488 Z-2.378004
G01 X9.132231 Y-60.937930 Z-3.110794
G01 X8.985702 Y-60.791344 Z-2.378004
G01 X8.985702 Y-60.791344 Z-2.378004
G01 X9.132514 Y-60.937930 Z-3.110936
G01 X9.132514 Y-60.937930 Z-3.110936
G01 X9.132570 Y-60.791400 Z-2.378287
G01 X9.279269 Y-60.791287 Z-2.378287
G01 X9.279269 Y-60.791287 Z-2.378287
G01 X9.132796 Y-60.937930 Z-3.110794
G01 X9.279269 Y-61.084544 Z-2.378287
G01 X9.279269 Y-61.084544 Z-2.378287
G01 X9.132514 Y-60.937930 Z-3.110936
G00 Z2.000000

G00 Z2.000000
G00 X9.132542 Y-57.636607

G01 Z-3.112064 F50.0(Penetrate)
G01 X9.132542 Y-57.636607 Z-3.112064 F100.000000
G01 X9.132372 Y-57.783335 Z-2.378428
G01 X8.985645 Y-57.783306 Z-2.378428
G01 X8.985645 Y-57.783306 Z-2.378428
G01 X9.132485 Y-57.636551 Z-3.112064
G01 X9.132485 Y-57.636551 Z-3.112064
G01 X8.985673 Y-57.636382 Z-2.378004
G01 X8.985702 Y-57.489739 Z-2.378004
G01 X8.985702 Y-57.489739 Z-2.378004
G01 X9.132514 Y-57.636579 Z-3.112206
G01 X9.132514 Y-57.636579 Z-3.112206
G01 X9.132570 Y-57.489795 Z-2.378287
G01 X9.279269 Y-57.489682 Z-2.378287
G01 X9.279269 Y-57.489682 Z-2.378287
G01 X9.132542 Y-57.636551 Z-3.112064
G01 X9.132542 Y-57.636551 Z-3.112064
G01 X9.279213 Y-57.636607 Z-2.378710
G01 X9.279326 Y-57.783391 Z-2.378710
G01 X9.279326 Y-57.783391 Z-2.378710
G01 X9.132542 Y-57.636607 Z-3.112064
G00 Z2.000000

G00 Z2.000000
G00 X9.132514 Y-55.100812

G01 Z-3.112206 F50.0(Penetrate)
G01 X9.132514 Y-55.100812 Z-3.112206 F100.000000
G01 X9.132344 Y-55.247653 Z-2.378004
G01 X8.985702 Y-55.247653 Z-2.378004
G01 X8.985702 Y-55.247653 Z-2.378004
G01 X9.132514 Y-55.100812 Z-3.112206
G01 X9.132514 Y-55.100812 Z-3.112206
G01 X8.985730 Y-55.100756 Z-2.378287
G01 X8.985617 Y-54.954029 Z-2.378287
G01 X8.985617 Y-54.954029 Z-2.378287
G01 X9.132514 Y-55.100812 Z-3.112206
G01 X9.132514 Y-55.100812 Z-3.112206
G01 X9.132570 Y-54.954085 Z-2.378569
G01 X9.279354 Y-54.954000 Z-2.378569
G01 X9.279354 Y-54.954000 Z-2.378569
G01 X9.132514 Y-55.100812 Z-3.112206
G01 X9.132514 Y-55.100812 Z-3.112206
G01 X9.279297 Y-55.100982 Z-2.378287
G01 X9.279269 Y-55.247709 Z-2.378287
G01 X9.279269 Y-55.247709 Z-2.378287
G01 X9.132514 Y-55.100812 Z-3.112206
G00 Z2.000000

G00 Z2.000000
G00 X9.132514 Y-52.565300

G01 Z-3.110936 F50.0(Penetrate)
G01 X9.132514 Y-52.565300 Z-3.110936 F100.000000
G01 X9.132344 Y-52.711886 Z-2.378004
G01 X8.985702 Y-52.711886 Z-2.378004
G01 X8.985702 Y-52.711886 Z-2.378004
G01 X9.132260 Y-52.565300 Z-3.110936
G01 X8.985702 Y-52.418714 Z-2.378004
G01 X8.985702 Y-52.418714 Z-2.378004
G01 X9.132514 Y-52.565300 Z-3.110936
G01 X9.132514 Y-52.565300 Z-3.110936
G01 X9.132570 Y-52.418770 Z-2.378287
G01 X9.279269 Y-52.418657 Z-2.378287
G01 X9.279269 Y-52.418657 Z-2.378287
G01 X9.132768 Y-52.565300 Z-3.110936
G01 X9.279269 Y-52.711942 Z-2.378287
G01 X9.279269 Y-52.711942 Z-2.378287
G01 X9.132514 Y-52.565300 Z-3.110936
G00 Z2.000000

G00 Z2.000000
G00 X9.132514 Y-49.263949

G01 Z-3.112206 F50.0(Penetrate)
G01 X9.132514 Y-49.263949 Z-3.112206 F100.000000
G01 X9.132344 Y-49.410789 Z-2.378004
G01 X8.985702 Y-49.410789 Z-2.378004
G01 X8.985702 Y-49.410789 Z-2.378004
G01 X9.132514 Y-49.263949 Z-3.112206
G01 X9.132514 Y-49.263949 Z-3.112206
G01 X8.985730 Y-49.263892 Z-2.378287
G01 X8.985617 Y-49.117165 Z-2.378287
G01 X8.985617 Y-49.117165 Z-2.378287
G01 X9.132514 Y-49.263949 Z-3.112206
G01 X9.132514 Y-49.263949 Z-3.112206
G01 X9.132570 Y-49.117222 Z-2.378569
G01 X9.279354 Y-49.117109 Z-2.378569
G01 X9.279354 Y-49.117109 Z-2.378569
G01 X9.132514 Y-49.263949 Z-3.112206
G01 X9.132514 Y-49.263949 Z-3.112206
G01 X9.279297 Y-49.264118 Z-2.378287
G01 X9.279269 Y-49.410846 Z-2.378287
G01 X9.279269 Y-49.410846 Z-2.378287
G01 X9.132514 Y-49.263949 Z-3.112206
G00 Z2.000000

G00 Z2.000000
G00 X9.132514 Y-46.728464

G01 Z-3.110936 F50.0(Penetrate)
G01 X9.132514 Y-46.728464 Z-3.110936 F100.000000
G01 X9.132344 Y-46.875022 Z-2.378004
G01 X8.985702 Y-46.875022 Z-2.378004
G01 X8.985702 Y-46.875022 Z-2.378004
G01 X9.132231 Y-46.728436 Z-3.110794
G01 X8.985702 Y-46.581878 Z-2.378004
G01 X8.985702 Y-46.581878 Z-2.378004
G01 X9.132514 Y-46.728464 Z-3.110936
G01 X9.132514 Y-46.728464 Z-3.110936
G01 X9.132570 Y-46.581935 Z-2.378287
G01 X9.279269 Y-46.581822 Z-2.378287
G01 X9.279269 Y-46.581822 Z-2.378287
G01 X9.132796 Y-46.728436 Z-3.110794
G01 X9.279269 Y-46.875079 Z-2.378287
G01 X9.279269 Y-46.875079 Z-2.378287
G01 X9.132514 Y-46.728464 Z-3.110936
G00 Z2.000000

G00 Z2.000000
G00 X9.132514 Y-44.192698

G01 Z-3.110936 F50.0(Penetrate)
G01 X9.132514 Y-44.192698 Z-3.110936 F100.000000
G01 X9.132344 Y-44.339256 Z-2.378004
G01 X8.985702 Y-44.339256 Z-2.378004
G01 X8.985702 Y-44.339256 Z-2.378004
G01 X9.132231 Y-44.192698 Z-3.110794
G01 X8.985702 Y-44.046112 Z-2.378004
G01 X8.985702 Y-44.046112 Z-2.378004
G01 X9.132514 Y-44.192698 Z-3.110936
G01 X9.132514 Y-44.192698 Z-3.110936
G01 X9.132570 Y-44.046168 Z-2.378287
G01 X9.279269 Y-44.046055 Z-2.378287
G01 X9.279269 Y-44.046055 Z-2.378287
G01 X9.132796 Y-44.192698 Z-3.110794
G01 X9.279269 Y-44.339312 Z-2.378287
G01 X9.279269 Y-44.339312 Z-2.378287
G01 X9.132514 Y-44.192698 Z-3.110936
G00 Z2.000000

G00 Z2.000000
G00 X9.132542 Y-40.891375

G01 Z-3.112064 F50.0(Penetrate)
G01 X9.132542 Y-40.891375 Z-3.112064 F100.000000
G01 X9.132372 Y-41.038187 Z-2.378004
G01 X8.985702 Y-41.038159 Z-2.378004
G01 X8.985702 Y-41.038159 Z-2.378004
G01 X9.132514 Y-40.891347 Z-3.112206
G01 X9.132514 Y-40.891347 Z-3.112206
G01 X8.985730 Y-40.891291 Z-2.378287
G01 X8.985617 Y-40.744563 Z-2.378287
G01 X8.985617 Y-40.744563 Z-2.378287
G01 X9.132514 Y-40.891347 Z-3.112206
G01 X9.132514 Y-40.891347 Z-3.112206
G01 X9.132570 Y-40.744620 Z-2.378569
G01 X9.279354 Y-40.744535 Z-2.378569
G01 X9.279354 Y-40.744535 Z-2.378569
G01 X9.132514 Y-40.891347 Z-3.112206
G01 X9.132514 Y-40.891347 Z-3.112206
G01 X9.279297 Y-40.891516 Z-2.378287
G01 X9.279269 Y-41.038244 Z-2.378287
G01 X9.279269 Y-41.038244 Z-2.378287
G01 X9.132542 Y-40.891375 Z-3.112064
G00 Z2.000000

G00 Z2.000000
G00 X9.132514 Y-38.355834

G01 Z-3.110936 F50.0(Penetrate)
G01 X9.132514 Y-38.355834 Z-3.110936 F100.000000
G01 X9.132344 Y-38.502421 Z-2.378004
G01 X8.985702 Y-38.502421 Z-2.378004
G01 X8.985702 Y-38.502421 Z-2.378004
G01 X9.132260 Y-38.355834 Z-3.110936
G01 X8.985702 Y-38.209248 Z-2.378004
G01 X8.985702 Y-38.209248 Z-2.378004
G01 X9.132514 Y-38.355834 Z-3.110936
G01 X9.132514 Y-38.355834 Z-3.110936
G01 X9.132570 Y-38.209305 Z-2.378287
G01 X9.279269 Y-38.209192 Z-2.378287
G01 X9.279269 Y-38.209192 Z-2.378287
G01 X9.132768 Y-38.355834 Z-3.110936
G01 X9.279269 Y-38.502477 Z-2.378287
G01 X9.279269 Y-38.502477 Z-2.378287
G01 X9.132514 Y-38.355834 Z-3.110936
G00 Z2.000000

G00 Z2.000000
G00 X9.132514 Y-35.820322

G01 Z-3.112206 F50.0(Penetrate)
G01 X9.132514 Y-35.820322 Z-3.112206 F100.000000
G01 X9.132344 Y-35.967105 Z-2.378287
G01 X8.985617 Y-35.967105 Z-2.378287
G01 X8.985617 Y-35.967105 Z-2.378287
G01 X9.132514 Y-35.820322 Z-3.112206
G01 X9.132514 Y-35.820322 Z-3.112206
G01 X8.985673 Y-35.820152 Z-2.378004
G01 X8.985702 Y-35.673481 Z-2.378004
G01 X8.985702 Y-35.673481 Z-2.378004
G01 X9.132514 Y-35.820322 Z-3.112206
G01 X9.132514 Y-35.820322 Z-3.112206
G01 X9.132570 Y-35.673538 Z-2.378287
G01 X9.279269 Y-35.673425 Z-2.378287
G01 X9.279269 Y-35.673425 Z-2.378287
G01 X9.132514 Y-35.820322 Z-3.112206
G01 X9.132514 Y-35.820322 Z-3.112206
G01 X9.279241 Y-35.820378 Z-2.378569
G01 X9.279354 Y-35.967134 Z-2.378569
G01 X9.279354 Y-35.967134 Z-2.378569
G01 X9.132514 Y-35.820322 Z-3.112206
G00 Z2.000000

G00 Z2.000000
G00 X9.132514 Y-32.518971

G01 Z-3.110936 F50.0(Penetrate)
G01 X9.132514 Y-32.518971 Z-3.110936 F100.000000
G01 X9.132344 Y-32.665557 Z-2.378004
G01 X8.985702 Y-32.665557 Z-2.378004
G01 X8.985702 Y-32.665557 Z-2.378004
G01 X9.132260 Y-32.518971 Z-3.110936
G01 X8.985730 Y-32.372441 Z-2.378146
G01 X8.985730 Y-32.372441 Z-2.378146
G01 X9.132514 Y-32.518971 Z-3.110936
G01 X9.132514 Y-32.518971 Z-3.110936
G01 X9.132542 Y-32.372469 Z-2.378428
G01 X9.279241 Y-32.372385 Z-2.378428
G01 X9.279241 Y-32.372385 Z-2.378428
G01 X9.132768 Y-32.518971 Z-3.110936
G01 X9.279269 Y-32.665613 Z-2.378287
G01 X9.279269 Y-32.665613 Z-2.378287
G01 X9.132514 Y-32.518971 Z-3.110936
G00 Z2.000000

G00 Z2.000000
G00 X9.132514 Y-29.983232

G01 Z-3.110936 F50.0(Penetrate)
G01 X9.132514 Y-29.983232 Z-3.110936 F100.000000
G01 X9.132344 Y-30.129790 Z-2.378004
G01 X8.985702 Y-30.129790 Z-2.378004
G01 X8.985702 Y-30.129790 Z-2.378004
G01 X9.132231 Y-29.983204 Z-3.110794
G01 X8.985702 Y-29.836646 Z-2.378004
G01 X8.985702 Y-29.836646 Z-2.378004
G01 X9.132514 Y-29.983232 Z-3.110936
G01 X9.132514 Y-29.983232 Z-3.110936
G01 X9.132570 Y-29.836703 Z-2.378287
G01 X9.279269 Y-29.836590 Z-2.378287
G01 X9.279269 Y-29.836590 Z-2.378287
G01 X9.132796 Y-29.983204 Z-3.110794
G01 X9.279269 Y-30.129847 Z-2.378287
G01 X9.279269 Y-30.129847 Z-2.378287
G01 X9.132514 Y-29.983232 Z-3.110936
G00 Z2.000000

G00 Z2.000000
G00 X9.132514 Y-27.447720

G01 Z-3.112206 F50.0(Penetrate)
G01 X9.132514 Y-27.447720 Z-3.112206 F100.000000
G01 X9.132344 Y-27.594503 Z-2.378287
G01 X8.985645 Y-27.594475 Z-2.378287
G01 X8.985645 Y-27.594475 Z-2.378287
G01 X9.132514 Y-27.447720 Z-3.112206
G01 X9.132514 Y-27.447720 Z-3.112206
G01 X8.985673 Y-27.447550 Z-2.378004
G01 X8.985702 Y-27.300879 Z-2.378004
G01 X8.985702 Y-27.300879 Z-2.378004
G01 X9.132514 Y-27.447720 Z-3.112206
G01 X9.132514 Y-27.447720 Z-3.112206
G01 X9.132570 Y-27.300936 Z-2.378287
G01 X9.279269 Y-27.300823 Z-2.378287
G01 X9.279269 Y-27.300823 Z-2.378287
G01 X9.132514 Y-27.447720 Z-3.112206
G01 X9.132514 Y-27.447720 Z-3.112206
G01 X9.279241 Y-27.447776 Z-2.378569
G01 X9.279354 Y-27.594560 Z-2.378569
G01 X9.279354 Y-27.594560 Z-2.378569
G01 X9.132514 Y-27.447720 Z-3.112206
G00 Z2.000000

G00 Z2.000000
G00 X9.132542 Y-24.146369

G01 Z-3.110936 F50.0(Penetrate)
G01 X9.132542 Y-24.146369 Z-3.110936 F100.000000
G01 X9.132372 Y-24.292927 Z-2.378146
G01 X8.985730 Y-24.292899 Z-2.378146
G01 X8.985730 Y-24.292899 Z-2.378146
G01 X9.132260 Y-24.146369 Z-3.110936
G01 X8.985702 Y-23.999783 Z-2.378004
G01 X8.985702 Y-23.999783 Z-2.378004
G01 X9.132514 Y-24.146369 Z-3.110936
G01 X9.132514 Y-24.146369 Z-3.110936
G01 X9.132570 Y-23.999839 Z-2.378287
G01 X9.279269 Y-23.999726 Z-2.378287
G01 X9.279269 Y-23.999726 Z-2.378287
G01 X9.132768 Y-24.146369 Z-3.110936
G01 X9.279269 Y-24.293011 Z-2.378287
G01 X9.279269 Y-24.293011 Z-2.378287
G01 X9.132542 Y-24.146369 Z-3.110936
G00 Z2.000000

G00 Z2.000000
G00 X9.132514 Y-21.610856

G01 Z-3.112206 F50.0(Penetrate)
G01 X9.132514 Y-21.610856 Z-3.112206 F100.000000
G01 X9.132344 Y-21.757640 Z-2.378287
G01 X8.985617 Y-21.757640 Z-2.378287
G01 X8.985617 Y-21.757640 Z-2.378287
G01 X9.132514 Y-21.610856 Z-3.112206
G01 X9.132514 Y-21.610856 Z-3.112206
G01 X8.985673 Y-21.610687 Z-2.378004
G01 X8.985702 Y-21.464016 Z-2.378004
G01 X8.985702 Y-21.464016 Z-2.378004
G01 X9.132514 Y-21.610856 Z-3.112206
G01 X9.132514 Y-21.610856 Z-3.112206
G01 X9.132570 Y-21.464072 Z-2.378287
G01 X9.279269 Y-21.463959 Z-2.378287
G01 X9.279269 Y-21.463959 Z-2.378287
G01 X9.132514 Y-21.610856 Z-3.112206
G01 X9.132514 Y-21.610856 Z-3.112206
G01 X9.279241 Y-21.610913 Z-2.378569
G01 X9.279354 Y-21.757668 Z-2.378569
G01 X9.279354 Y-21.757668 Z-2.378569
G01 X9.132514 Y-21.610856 Z-3.112206
G00 Z2.000000

G00 Z2.000000
G00 X9.132514 Y-19.075089

G01 Z-3.112206 F50.0(Penetrate)
G01 X9.132514 Y-19.075089 Z-3.112206 F100.000000
G01 X9.132344 Y-19.221930 Z-2.378004
G01 X8.985702 Y-19.221930 Z-2.378004
G01 X8.985702 Y-19.221930 Z-2.378004
G01 X9.132514 Y-19.075089 Z-3.112206
G01 X9.132514 Y-19.075089 Z-3.112206
G01 X8.985758 Y-19.075033 Z-2.378287
G01 X8.985645 Y-18.928334 Z-2.378287
G01 X8.985645 Y-18.928334 Z-2.378287
G01 X9.132514 Y-19.075089 Z-3.112206
G01 X9.132514 Y-19.075089 Z-3.112206
G01 X9.132570 Y-18.928362 Z-2.378569
G01 X9.279354 Y-18.928249 Z-2.378569
G01 X9.279354 Y-18.928249 Z-2.378569
G01 X9.132514 Y-19.075089 Z-3.112206
G01 X9.132514 Y-19.075089 Z-3.112206
G01 X9.279297 Y-19.075259 Z-2.378287
G01 X9.279269 Y-19.221986 Z-2.378287
G01 X9.279269 Y-19.221986 Z-2.378287
G01 X9.132514 Y-19.075089 Z-3.112206
G00 Z2.000000

G00 Z2.000000
G00 X9.132514 Y-15.773739

G01 Z-3.110936 F50.0(Penetrate)
G01 X9.132514 Y-15.773739 Z-3.110936 F100.000000
G01 X9.132344 Y-15.920325 Z-2.378004
G01 X8.985702 Y-15.920325 Z-2.378004
G01 X8.985702 Y-15.920325 Z-2.378004
G01 X9.132260 Y-15.773739 Z-3.110936
G01 X8.985730 Y-15.627209 Z-2.378146
G01 X8.985730 Y-15.627209 Z-2.378146
G01 X9.132514 Y-15.773739 Z-3.110936
G01 X9.132514 Y-15.773739 Z-3.110936
G01 X9.132542 Y-15.627237 Z-2.378428
G01 X9.279241 Y-15.627152 Z-2.378428
G01 X9.279241 Y-15.627152 Z-2.378428
G01 X9.132768 Y-15.773739 Z-3.110936
G01 X9.279269 Y-15.920381 Z-2.378287
G01 X9.279269 Y-15.920381 Z-2.378287
G01 X9.132514 Y-15.773739 Z-3.110936
G00 Z2.000000

G00 Z2.000000
G00 X9.132485 Y-13.238282

G01 Z-3.112064 F50.0(Penetrate)
G01 X9.132485 Y-13.238282 Z-3.112064 F100.000000
G01 X9.132344 Y-13.385094 Z-2.378004
G01 X8.985702 Y-13.385066 Z-2.378004
G01 X8.985702 Y-13.385066 Z-2.378004
G01 X9.132514 Y-13.238254 Z-3.112206
G01 X9.132514 Y-13.238254 Z-3.112206
G01 X8.985730 Y-13.238198 Z-2.378287
G01 X8.985617 Y-13.091470 Z-2.378287
G01 X8.985617 Y-13.091470 Z-2.378287
G01 X9.132485 Y-13.238226 Z-3.112064
G01 X9.132485 Y-13.238226 Z-3.112064
G01 X9.132570 Y-13.091499 Z-2.378428
G01 X9.279354 Y-13.091414 Z-2.378428
G01 X9.279354 Y-13.091414 Z-2.378428
G01 X9.132514 Y-13.238254 Z-3.112206
G01 X9.132514 Y-13.238254 Z-3.112206
G01 X9.279297 Y-13.238424 Z-2.378287
G01 X9.279269 Y-13.385123 Z-2.378287
G01 X9.279269 Y-13.385123 Z-2.378287
G01 X9.132485 Y-13.238282 Z-3.112064
G00 Z2.000000

G00 Z2.000000
G00 X9.132485 Y-10.702742

G01 Z-3.110936 F50.0(Penetrate)
G01 X9.132485 Y-10.702742 Z-3.110936 F100.000000
G01 X9.132344 Y-10.849328 Z-2.378004
G01 X8.985702 Y-10.849300 Z-2.378004
G01 X8.985702 Y-10.849300 Z-2.378004
G01 X9.132260 Y-10.702742 Z-3.110936
G01 X8.985702 Y-10.556184 Z-2.378004
G01 X8.985702 Y-10.556184 Z-2.378004
G01 X9.132485 Y-10.702742 Z-3.110936
G01 X9.132485 Y-10.702742 Z-3.110936
G01 X9.132542 Y-10.556212 Z-2.378287
G01 X9.279269 Y-10.556127 Z-2.378287
G01 X9.279269 Y-10.556127 Z-2.378287
G01 X9.132796 Y-10.702742 Z-3.110936
G01 X9.279269 Y-10.849356 Z-2.378287
G01 X9.279269 Y-10.849356 Z-2.378287
G01 X9.132485 Y-10.702742 Z-3.110936
G00 Z2.000000

G00 Z2.000000
G00 X9.132485 Y-7.401419

G01 Z-3.112064 F50.0(Penetrate)
G01 X9.132485 Y-7.401419 Z-3.112064 F100.000000
G01 X9.132344 Y-7.548174 Z-2.378287
G01 X8.985617 Y-7.548146 Z-2.378287
G01 X8.985617 Y-7.548146 Z-2.378287
G01 X9.132514 Y-7.401391 Z-3.112206
G01 X9.132514 Y-7.401391 Z-3.112206
G01 X9.029361 Y-7.401250 Z-2.596444
G01 X9.029390 Y-7.298238 Z-2.596444
G01 X9.029390 Y-7.298238 Z-2.596444
G01 X9.132372 Y-7.401250 Z-3.111500
G01 X9.235496 Y-7.298380 Z-2.597150
G01 X9.235496 Y-7.298380 Z-2.597150
G01 X9.132542 Y-7.401391 Z-3.112206
G01 X9.132542 Y-7.401391 Z-3.112206
G01 X9.279241 Y-7.401447 Z-2.378569
G01 X9.279326 Y-7.548203 Z-2.378569
G01 X9.279326 Y-7.548203 Z-2.378569
G01 X9.132485 Y-7.401419 Z-3.112064
G00 Z2.000000

G00 Z2.000000
G00 X9.132485 Y-4.865652

G01 Z-3.112064 F50.0(Penetrate)
G01 X9.132485 Y-4.865652 Z-3.112064 F100.000000
G01 X9.132344 Y-5.012464 Z-2.378004
G01 X8.985702 Y-5.012436 Z-2.378004
G01 X8.985702 Y-5.012436 Z-2.378004
G01 X9.132514 Y-4.865624 Z-3.112206
G01 X9.132514 Y-4.865624 Z-3.112206
G01 X8.985758 Y-4.865568 Z-2.378428
G01 X8.985645 Y-4.718868 Z-2.378428
G01 X8.985645 Y-4.718868 Z-2.378428
G01 X9.132485 Y-4.865596 Z-3.112064
G01 X9.132485 Y-4.865596 Z-3.112064
G01 X9.132542 Y-4.718897 Z-2.378569
G01 X9.279326 Y-4.718812 Z-2.378569
G01 X9.279326 Y-4.718812 Z-2.378569
G01 X9.132542 Y-4.865624 Z-3.112206
G01 X9.132542 Y-4.865624 Z-3.112206
G01 X9.279297 Y-4.865765 Z-2.378287
G01 X9.279269 Y-5.012492 Z-2.378287
G01 X9.279269 Y-5.012492 Z-2.378287
G01 X9.132485 Y-4.865652 Z-3.112064
G00 Z2.000000

G00 Z2.000000
G00 X9.132485 Y-2.330140

G01 Z-3.110936 F50.0(Penetrate)
G01 X9.132485 Y-2.330140 Z-3.110936 F100.000000
G01 X9.132344 Y-2.476726 Z-2.378004
G01 X8.985702 Y-2.476698 Z-2.378004
G01 X8.985702 Y-2.476698 Z-2.378004
G01 X9.132260 Y-2.330111 Z-3.110936
G01 X8.985702 Y-2.183582 Z-2.378004
G01 X8.985702 Y-2.183582 Z-2.378004
G01 X9.132514 Y-2.330140 Z-3.110936
G01 X9.132514 Y-2.330140 Z-3.110936
G01 X9.132542 Y-2.183610 Z-2.378287
G01 X9.279269 Y-2.183525 Z-2.378287
G01 X9.279269 Y-2.183525 Z-2.378287
G01 X9.132768 Y-2.330111 Z-3.110936
G01 X9.279269 Y-2.476754 Z-2.378287
G01 X9.279269 Y-2.476754 Z-2.378287
G01 X9.132485 Y-2.330140 Z-3.110936
G00 Z2.000000

G00 Z2.000000
G00 X0.000000 Y-0.022804

G01 Z-1.904294 F50.0(Penetrate)
G01 X-0.089662 Y-0.112466 Z-1.455843 F100.000000
G01 X-0.089662 Y-0.112466 Z-1.455843
G01 X0.000000 Y-0.022775 Z-1.904294
G01 X-0.089662 Y0.066887 Z-1.455843
G01 X-0.089662 Y0.066887 Z-1.455843
G01 X0.000000 Y-0.022775 Z-1.904294
G01 X0.089662 Y0.066887 Z-1.455843
G01 X0.089662 Y0.066887 Z-1.455843
G01 X0.000000 Y-0.022775 Z-1.904294
G01 X0.089662 Y-0.112466 Z-1.455843
G01 X0.089662 Y-0.112466 Z-1.455843
G01 X0.000000 Y-0.022804 Z-1.904294
G00 Z2.000000


(Footer)
M5
G00 X0.0000 Y0.0000
M2
(Using default footer. To add your own footer create file "footer" in the output dir.)
(end)
%