%
(Header)
(Generated by gcodetools from Inkscape.)
(Using default header. To add your own header create file "header" in the output dir.)
M3
(Header end.)
G21 (All units in mm)
(Tool diameter should be at least 0.203623332564 mm)
(Depth, as a function of radius w, must be 5*w)
(Rapid feeds use safe Z=2.0 mm)
(Material surface at Z=0.0 mm)
(Change tool to Eigth Inch Cone)

G00 Z2.000000
G00 X0.812377 Y6.228560

G01 Z-0.508988 F50.0(Penetrate)
G01 X0.710551 Y6.330357 Z0.000000 F100.000000
G01 X0.812377 Y6.228560 Z-0.508988
G01 X1.378289 Y6.228560 Z-0.508988
G01 X35.244955 Y6.228560 Z-0.508988
G01 X38.067177 Y6.228560 Z-0.508988
G01 X41.455340 Y6.228560 Z-0.508988
G01 X41.557166 Y6.330357 Z0.000000
G01 X41.455340 Y6.228560 Z-0.508988
G01 X41.455340 Y6.228560 Z-0.508988
G01 X41.557166 Y6.126734 Z0.000000
G01 X41.455340 Y6.228560 Z-0.508988
G01 X41.103522 Y6.228560 Z-0.508988
G01 X37.726394 Y6.228024 Z-0.506448
G01 X37.726394 Y3.422509 Z-0.506448
G01 X37.827655 Y3.321219 Z0.000000
G01 X37.726394 Y3.422509 Z-0.506448
G01 X37.639131 Y3.422537 Z-0.506448
G01 X3.772464 Y3.422537 Z-0.506448
G01 X0.863007 Y3.422537 Z-0.506448
G01 X0.761718 Y3.321219 Z0.000000
G01 X0.863007 Y3.422537 Z-0.506448
G01 X0.863007 Y3.422537 Z-0.506448
G01 X0.761718 Y3.523827 Z0.000000
G01 X0.863007 Y3.422537 Z-0.506448
G01 X0.848953 Y3.436564 Z-0.436174
G01 X3.671175 Y3.422537 Z-0.506448
G01 X34.715619 Y3.422537 Z-0.506448
G01 X37.726394 Y3.422537 Z-0.506448
G01 X37.726394 Y6.228024 Z-0.506448
G01 X37.512272 Y6.228560 Z-0.508988
G01 X3.645606 Y6.228560 Z-0.508988
G01 X0.812377 Y6.228560 Z-0.508988
G01 X0.710551 Y6.126734 Z0.000000
G01 X0.812377 Y6.228560 Z-0.508988
G01 X0.812377 Y6.228560 Z-0.508988
G00 Z2.000000

G00 Z2.000000
G00 X0.812094 Y14.600908

G01 Z-0.507718 F50.0(Penetrate)
G01 X0.710551 Y14.702451 Z0.000000 F100.000000
G01 X0.812094 Y14.600908 Z-0.507718
G01 X1.378289 Y14.600908 Z-0.507718
G01 X35.244955 Y14.600908 Z-0.507718
G01 X38.067177 Y14.600908 Z-0.507718
G01 X41.455622 Y14.600908 Z-0.507718
G01 X41.557166 Y14.702451 Z0.000000
G01 X41.455622 Y14.600908 Z-0.507718
G01 X41.455622 Y14.600908 Z-0.507718
G01 X41.557166 Y14.499364 Z0.000000
G01 X41.455622 Y14.600908 Z-0.507718
G01 X41.103522 Y14.600908 Z-0.507718
G01 X37.726394 Y14.600654 Z-0.506448
G01 X37.726112 Y11.794885 Z-0.507718
G01 X37.827655 Y11.693342 Z0.000000
G01 X37.726112 Y11.794885 Z-0.507718
G01 X37.639131 Y11.794885 Z-0.507718
G01 X3.772464 Y11.794885 Z-0.507718
G01 X0.863261 Y11.794885 Z-0.507718
G01 X0.761718 Y11.693342 Z0.000000
G01 X0.863261 Y11.794885 Z-0.507718
G01 X0.863261 Y11.794885 Z-0.507718
G01 X0.761718 Y11.896429 Z0.000000
G01 X0.863261 Y11.794885 Z-0.507718
G01 X0.848953 Y11.809194 Z-0.436174
G01 X3.671175 Y11.794885 Z-0.507718
G01 X34.715619 Y11.794885 Z-0.507718
G01 X37.726394 Y11.795139 Z-0.506448
G01 X37.726394 Y14.600654 Z-0.506448
G01 X37.512272 Y14.600908 Z-0.507718
G01 X3.645606 Y14.600908 Z-0.507718
G01 X0.812094 Y14.600908 Z-0.507718
G01 X0.710551 Y14.499364 Z0.000000
G01 X0.812094 Y14.600908 Z-0.507718
G01 X0.812094 Y14.600908 Z-0.507718
G00 Z2.000000

G00 Z2.000000
G00 X0.812348 Y22.973284

G01 Z-0.508988 F50.0(Penetrate)
G01 X0.710551 Y23.075081 Z0.000000 F100.000000
G01 X0.812348 Y22.973284 Z-0.508988
G01 X1.378289 Y22.973284 Z-0.508988
G01 X35.244955 Y22.973284 Z-0.508988
G01 X38.067177 Y22.973284 Z-0.508988
G01 X41.455368 Y22.973284 Z-0.508988
G01 X41.557166 Y23.075081 Z0.000000
G01 X41.455368 Y22.973284 Z-0.508988
G01 X41.455368 Y22.973284 Z-0.508988
G01 X41.557166 Y22.871458 Z0.000000
G01 X41.455368 Y22.973284 Z-0.508988
G01 X41.103522 Y22.973284 Z-0.508988
G01 X37.726394 Y22.972748 Z-0.506448
G01 X37.726112 Y20.167515 Z-0.507718
G01 X37.827655 Y20.065943 Z0.000000
G01 X37.726112 Y20.167515 Z-0.507718
G01 X37.639131 Y20.167515 Z-0.507718
G01 X3.772464 Y20.167515 Z-0.507718
G01 X0.863261 Y20.167515 Z-0.507718
G01 X0.761718 Y20.065943 Z0.000000
G01 X0.863261 Y20.167515 Z-0.507718
G01 X0.863261 Y20.167515 Z-0.507718
G01 X0.761718 Y20.269059 Z0.000000
G01 X0.863261 Y20.167515 Z-0.507718
G01 X0.848953 Y20.181796 Z-0.436174
G01 X3.671175 Y20.167515 Z-0.507718
G01 X34.715619 Y20.167515 Z-0.507718
G01 X37.726394 Y20.167769 Z-0.506448
G01 X37.726394 Y22.972748 Z-0.506448
G01 X37.512272 Y22.973284 Z-0.508988
G01 X3.645606 Y22.973284 Z-0.508988
G01 X0.812348 Y22.973284 Z-0.508988
G01 X0.710551 Y22.871458 Z0.000000
G01 X0.812348 Y22.973284 Z-0.508988
G01 X0.812348 Y22.973284 Z-0.508988
G00 Z2.000000

G00 Z2.000000
G00 X0.811840 Y31.345886

G01 Z-0.506448 F50.0(Penetrate)
G01 X0.710551 Y31.447175 Z0.000000 F100.000000
G01 X0.811840 Y31.345886 Z-0.506448
G01 X1.378289 Y31.345886 Z-0.506448
G01 X35.244955 Y31.345886 Z-0.506448
G01 X38.067177 Y31.345886 Z-0.506448
G01 X41.455876 Y31.345886 Z-0.506448
G01 X41.557166 Y31.447175 Z0.000000
G01 X41.455876 Y31.345886 Z-0.506448
G01 X41.455876 Y31.345886 Z-0.506448
G01 X41.557166 Y31.244596 Z0.000000
G01 X41.455876 Y31.345886 Z-0.506448
G01 X41.103522 Y31.345886 Z-0.506448
G01 X37.726394 Y31.345886 Z-0.506448
G01 X37.725858 Y28.539863 Z-0.508988
G01 X37.827655 Y28.438066 Z0.000000
G01 X37.725858 Y28.539863 Z-0.508988
G01 X37.639131 Y28.539863 Z-0.508988
G01 X3.772464 Y28.539863 Z-0.508988
G01 X0.863515 Y28.539863 Z-0.508988
G01 X0.761718 Y28.438066 Z0.000000
G01 X0.863515 Y28.539863 Z-0.508988
G01 X0.863515 Y28.539863 Z-0.508988
G01 X0.761718 Y28.641661 Z0.000000
G01 X0.863515 Y28.539863 Z-0.508988
G01 X0.848953 Y28.554398 Z-0.436174
G01 X3.671175 Y28.539863 Z-0.508988
G01 X34.715619 Y28.539863 Z-0.508988
G01 X37.726394 Y28.540371 Z-0.506448
G01 X37.726366 Y28.641661 Z-0.506448
G01 X37.726366 Y31.345886 Z-0.506448
G01 X37.512272 Y31.345886 Z-0.506448
G01 X3.645606 Y31.345886 Z-0.506448
G01 X0.811840 Y31.345886 Z-0.506448
G01 X0.710551 Y31.244596 Z0.000000
G01 X0.811840 Y31.345886 Z-0.506448
G01 X0.811840 Y31.345886 Z-0.506448
G00 Z2.000000

G00 Z2.000000
G00 X0.812094 Y39.718234

G01 Z-0.507718 F50.0(Penetrate)
G01 X0.710551 Y39.819777 Z0.000000 F100.000000
G01 X0.812094 Y39.718234 Z-0.507718
G01 X1.378289 Y39.718234 Z-0.507718
G01 X35.244955 Y39.718234 Z-0.507718
G01 X38.067177 Y39.718234 Z-0.507718
G01 X41.455622 Y39.718234 Z-0.507718
G01 X41.557166 Y39.819777 Z0.000000
G01 X41.455622 Y39.718234 Z-0.507718
G01 X41.455622 Y39.718234 Z-0.507718
G01 X41.557166 Y39.616690 Z0.000000
G01 X41.455622 Y39.718234 Z-0.507718
G01 X41.103522 Y39.718234 Z-0.507718
G01 X37.726394 Y39.717980 Z-0.506448
G01 X37.725858 Y36.912465 Z-0.508988
G01 X37.827655 Y36.810668 Z0.000000
G01 X37.725858 Y36.912465 Z-0.508988
G01 X37.639131 Y36.912465 Z-0.508988
G01 X3.772464 Y36.912465 Z-0.508988
G01 X0.863515 Y36.912465 Z-0.508988
G01 X0.761718 Y36.810668 Z0.000000
G01 X0.863515 Y36.912465 Z-0.508988
G01 X0.863515 Y36.912465 Z-0.508988
G01 X0.761718 Y37.014263 Z0.000000
G01 X0.863515 Y36.912465 Z-0.508988
G01 X0.848953 Y36.927028 Z-0.436174
G01 X3.671175 Y36.912465 Z-0.508988
G01 X34.715619 Y36.912465 Z-0.508988
G01 X37.726394 Y36.913001 Z-0.506448
G01 X37.726394 Y39.717980 Z-0.506448
G01 X37.512272 Y39.718234 Z-0.507718
G01 X3.645606 Y39.718234 Z-0.507718
G01 X0.812094 Y39.718234 Z-0.507718
G01 X0.710551 Y39.616690 Z0.000000
G01 X0.812094 Y39.718234 Z-0.507718
G01 X0.812094 Y39.718234 Z-0.507718
G00 Z2.000000

G00 Z2.000000
G00 X0.812348 Y48.091118

G01 Z-0.508988 F50.0(Penetrate)
G01 X0.710551 Y48.192916 Z0.000000 F100.000000
G01 X0.812348 Y48.091118 Z-0.508988
G01 X1.378289 Y48.091118 Z-0.508988
G01 X35.244955 Y48.091118 Z-0.508988
G01 X38.067177 Y48.091118 Z-0.508988
G01 X41.455368 Y48.091118 Z-0.508988
G01 X41.557166 Y48.192916 Z0.000000
G01 X41.455368 Y48.091118 Z-0.508988
G01 X41.455368 Y48.091118 Z-0.508988
G01 X41.557166 Y47.989320 Z0.000000
G01 X41.455368 Y48.091118 Z-0.508988
G01 X41.103522 Y48.091118 Z-0.508988
G01 X37.726394 Y48.090610 Z-0.506448
G01 X37.726394 Y47.989320 Z-0.506448
G01 X37.726394 Y45.285095 Z-0.506448
G01 X37.827655 Y45.183806 Z0.000000
G01 X37.726394 Y45.285095 Z-0.506448
G01 X37.639131 Y45.285095 Z-0.506448
G01 X3.772464 Y45.285095 Z-0.506448
G01 X0.863007 Y45.285095 Z-0.506448
G01 X0.761718 Y45.183806 Z0.000000
G01 X0.863007 Y45.285095 Z-0.506448
G01 X0.863007 Y45.285095 Z-0.506448
G01 X0.761718 Y45.386385 Z0.000000
G01 X0.863007 Y45.285095 Z-0.506448
G01 X0.848953 Y45.299122 Z-0.436174
G01 X3.671175 Y45.285095 Z-0.506448
G01 X34.715619 Y45.285095 Z-0.506448
G01 X37.726366 Y45.285095 Z-0.506448
G01 X37.726394 Y48.090610 Z-0.506448
G01 X37.726394 Y48.090610 Z-0.506448
G01 X37.512272 Y48.091118 Z-0.508988
G01 X3.645606 Y48.091118 Z-0.508988
G01 X0.812348 Y48.091118 Z-0.508988
G01 X0.710551 Y47.989320 Z0.000000
G01 X0.812348 Y48.091118 Z-0.508988
G01 X0.812348 Y48.091118 Z-0.508988
G00 Z2.000000

G00 Z2.000000
G00 X0.812094 Y56.463466

G01 Z-0.507718 F50.0(Penetrate)
G01 X0.710551 Y56.565010 Z0.000000 F100.000000
G01 X0.812094 Y56.463466 Z-0.507718
G01 X1.378289 Y56.463466 Z-0.507718
G01 X35.244955 Y56.463466 Z-0.507718
G01 X38.067177 Y56.463466 Z-0.507718
G01 X41.455622 Y56.463466 Z-0.507718
G01 X41.557166 Y56.565010 Z0.000000
G01 X41.455622 Y56.463466 Z-0.507718
G01 X41.455622 Y56.463466 Z-0.507718
G01 X41.557166 Y56.361922 Z0.000000
G01 X41.455622 Y56.463466 Z-0.507718
G01 X41.103522 Y56.463466 Z-0.507718
G01 X37.726394 Y56.463212 Z-0.506448
G01 X37.725858 Y53.657697 Z-0.508988
G01 X37.827655 Y53.555900 Z0.000000
G01 X37.725858 Y53.657697 Z-0.508988
G01 X37.639131 Y53.657697 Z-0.508988
G01 X3.772464 Y53.657697 Z-0.508988
G01 X0.863515 Y53.657697 Z-0.508988
G01 X0.761718 Y53.555900 Z0.000000
G01 X0.863515 Y53.657697 Z-0.508988
G01 X0.863515 Y53.657697 Z-0.508988
G01 X0.761718 Y53.759495 Z0.000000
G01 X0.863515 Y53.657697 Z-0.508988
G01 X0.848953 Y53.672260 Z-0.436174
G01 X3.671175 Y53.657697 Z-0.508988
G01 X34.715619 Y53.657697 Z-0.508988
G01 X37.726394 Y53.658205 Z-0.506448
G01 X37.726394 Y56.463212 Z-0.506448
G01 X37.512272 Y56.463466 Z-0.507718
G01 X3.645606 Y56.463466 Z-0.507718
G01 X0.812094 Y56.463466 Z-0.507718
G01 X0.710551 Y56.361922 Z0.000000
G01 X0.812094 Y56.463466 Z-0.507718
G01 X0.812094 Y56.463466 Z-0.507718
G00 Z2.000000

G00 Z2.000000
G00 X0.812348 Y64.835842

G01 Z-0.508988 F50.0(Penetrate)
G01 X0.710551 Y64.937640 Z0.000000 F100.000000
G01 X0.812348 Y64.835842 Z-0.508988
G01 X1.378289 Y64.835842 Z-0.508988
G01 X35.244955 Y64.835842 Z-0.508988
G01 X38.067177 Y64.835842 Z-0.508988
G01 X41.455368 Y64.835842 Z-0.508988
G01 X41.557166 Y64.937640 Z0.000000
G01 X41.455368 Y64.835842 Z-0.508988
G01 X41.455368 Y64.835842 Z-0.508988
G01 X41.557166 Y64.734045 Z0.000000
G01 X41.455368 Y64.835842 Z-0.508988
G01 X41.103522 Y64.835842 Z-0.508988
G01 X37.726394 Y64.835306 Z-0.506448
G01 X37.725858 Y62.030328 Z-0.508988
G01 X37.827655 Y61.928530 Z0.000000
G01 X37.725858 Y62.030328 Z-0.508988
G01 X37.639131 Y62.030328 Z-0.508988
G01 X3.772464 Y62.030328 Z-0.508988
G01 X0.863515 Y62.030328 Z-0.508988
G01 X0.761718 Y61.928530 Z0.000000
G01 X0.863515 Y62.030328 Z-0.508988
G01 X0.863515 Y62.030328 Z-0.508988
G01 X0.761718 Y62.132125 Z0.000000
G01 X0.863515 Y62.030328 Z-0.508988
G01 X0.848953 Y62.044890 Z-0.436174
G01 X3.671175 Y62.030328 Z-0.508988
G01 X34.715619 Y62.030328 Z-0.508988
G01 X37.726394 Y62.030836 Z-0.506448
G01 X37.726394 Y64.835306 Z-0.506448
G01 X37.512272 Y64.835842 Z-0.508988
G01 X3.645606 Y64.835842 Z-0.508988
G01 X0.812348 Y64.835842 Z-0.508988
G01 X0.710551 Y64.734045 Z0.000000
G01 X0.812348 Y64.835842 Z-0.508988
G01 X0.812348 Y64.835842 Z-0.508988
G00 Z2.000000

G00 Z2.000000
G00 X0.811840 Y73.208444

G01 Z-0.506448 F50.0(Penetrate)
G01 X0.710551 Y73.309734 Z0.000000 F100.000000
G01 X0.811840 Y73.208444 Z-0.506448
G01 X1.378289 Y73.208444 Z-0.506448
G01 X35.244955 Y73.208444 Z-0.506448
G01 X38.067177 Y73.208444 Z-0.506448
G01 X41.455876 Y73.208444 Z-0.506448
G01 X41.557166 Y73.309734 Z0.000000
G01 X41.455876 Y73.208444 Z-0.506448
G01 X41.455876 Y73.208444 Z-0.506448
G01 X41.557166 Y73.107155 Z0.000000
G01 X41.455876 Y73.208444 Z-0.506448
G01 X41.103522 Y73.208444 Z-0.506448
G01 X37.726394 Y73.208444 Z-0.506448
G01 X37.726112 Y70.402676 Z-0.507718
G01 X37.827655 Y70.301132 Z0.000000
G01 X37.726112 Y70.402676 Z-0.507718
G01 X37.639131 Y70.402676 Z-0.507718
G01 X3.772464 Y70.402676 Z-0.507718
G01 X0.863261 Y70.402676 Z-0.507718
G01 X0.761718 Y70.301132 Z0.000000
G01 X0.863261 Y70.402676 Z-0.507718
G01 X0.863261 Y70.402676 Z-0.507718
G01 X0.761718 Y70.504219 Z0.000000
G01 X0.863261 Y70.402676 Z-0.507718
G01 X0.848953 Y70.416984 Z-0.436174
G01 X3.671175 Y70.402676 Z-0.507718
G01 X34.715619 Y70.402676 Z-0.507718
G01 X37.726394 Y70.402930 Z-0.506448
G01 X37.726366 Y70.504219 Z-0.506448
G01 X37.726366 Y73.208444 Z-0.506448
G01 X37.512272 Y73.208444 Z-0.506448
G01 X3.645606 Y73.208444 Z-0.506448
G01 X0.811840 Y73.208444 Z-0.506448
G01 X0.710551 Y73.107155 Z0.000000
G01 X0.811840 Y73.208444 Z-0.506448
G01 X0.811840 Y73.208444 Z-0.506448
G00 Z2.000000

G00 Z2.000000
G00 X0.812094 Y81.581328

G01 Z-0.507718 F50.0(Penetrate)
G01 X0.710551 Y81.682872 Z0.000000 F100.000000
G01 X0.812094 Y81.581328 Z-0.507718
G01 X1.378289 Y81.581328 Z-0.507718
G01 X35.244955 Y81.581328 Z-0.507718
G01 X38.067177 Y81.581328 Z-0.507718
G01 X41.455622 Y81.581328 Z-0.507718
G01 X41.557166 Y81.682872 Z0.000000
G01 X41.455622 Y81.581328 Z-0.507718
G01 X41.455622 Y81.581328 Z-0.507718
G01 X41.557166 Y81.479785 Z0.000000
G01 X41.455622 Y81.581328 Z-0.507718
G01 X41.103522 Y81.581328 Z-0.507718
G01 X37.726394 Y81.581074 Z-0.506448
G01 X37.726112 Y78.775306 Z-0.507718
G01 X37.827655 Y78.673762 Z0.000000
G01 X37.726112 Y78.775306 Z-0.507718
G01 X37.639131 Y78.775306 Z-0.507718
G01 X3.772464 Y78.775306 Z-0.507718
G01 X0.863261 Y78.775306 Z-0.507718
G01 X0.761718 Y78.673762 Z0.000000
G01 X0.863261 Y78.775306 Z-0.507718
G01 X0.863261 Y78.775306 Z-0.507718
G01 X0.761718 Y78.876849 Z0.000000
G01 X0.863261 Y78.775306 Z-0.507718
G01 X0.848953 Y78.789586 Z-0.436174
G01 X3.671175 Y78.775306 Z-0.507718
G01 X34.715619 Y78.775306 Z-0.507718
G01 X37.726394 Y78.775560 Z-0.506448
G01 X37.726394 Y81.581074 Z-0.506448
G01 X37.512272 Y81.581328 Z-0.507718
G01 X3.645606 Y81.581328 Z-0.507718
G01 X0.812094 Y81.581328 Z-0.507718
G01 X0.710551 Y81.479785 Z0.000000
G01 X0.812094 Y81.581328 Z-0.507718
G01 X0.812094 Y81.581328 Z-0.507718
G00 Z2.000000

G00 Z2.000000
G00 X0.812348 Y89.953676

G01 Z-0.508988 F50.0(Penetrate)
G01 X0.710551 Y90.055474 Z0.000000 F100.000000
G01 X0.812348 Y89.953676 Z-0.508988
G01 X1.378289 Y89.953676 Z-0.508988
G01 X35.244955 Y89.953676 Z-0.508988
G01 X38.067177 Y89.953676 Z-0.508988
G01 X41.455368 Y89.953676 Z-0.508988
G01 X41.557166 Y90.055474 Z0.000000
G01 X41.455368 Y89.953676 Z-0.508988
G01 X41.455368 Y89.953676 Z-0.508988
G01 X41.557166 Y89.851879 Z0.000000
G01 X41.455368 Y89.953676 Z-0.508988
G01 X41.103522 Y89.953676 Z-0.508988
G01 X37.726394 Y89.953168 Z-0.506448
G01 X37.726394 Y89.851879 Z-0.506448
G01 X37.726394 Y87.147654 Z-0.506448
G01 X37.827655 Y87.046364 Z0.000000
G01 X37.726394 Y87.147654 Z-0.506448
G01 X37.639131 Y87.147654 Z-0.506448
G01 X3.772464 Y87.147654 Z-0.506448
G01 X0.863007 Y87.147654 Z-0.506448
G01 X0.761718 Y87.046364 Z0.000000
G01 X0.863007 Y87.147654 Z-0.506448
G01 X0.863007 Y87.147654 Z-0.506448
G01 X0.761718 Y87.248943 Z0.000000
G01 X0.863007 Y87.147654 Z-0.506448
G01 X0.848953 Y87.161680 Z-0.436174
G01 X3.671175 Y87.147654 Z-0.506448
G01 X34.715619 Y87.147654 Z-0.506448
G01 X37.726366 Y87.147654 Z-0.506448
G01 X37.726394 Y89.953168 Z-0.506448
G01 X37.726394 Y89.953168 Z-0.506448
G01 X37.512272 Y89.953676 Z-0.508988
G01 X3.645606 Y89.953676 Z-0.508988
G01 X0.812348 Y89.953676 Z-0.508988
G01 X0.710551 Y89.851879 Z0.000000
G01 X0.812348 Y89.953676 Z-0.508988
G01 X0.812348 Y89.953676 Z-0.508988
G00 Z2.000000


(Footer)
M5
G00 X0.0000 Y0.0000
M2
(Using default footer. To add your own footer create file "footer" in the output dir.)
(end)
%